icons/kde-light.svg

<svg width="256" height="256" viewBox="0 0 256 256" fill="none" xmlns="http://www.w3.org/2000/svg">
<path d="M196 0H60C26.8629 0 0 26.8629 0 60V196C0 229.137 26.8629 256 60 256H196C229.137 256 256 229.137 256 196V60C256 26.8629 229.137 0 196 0Z" fill="#F4F2ED"/>
<path d="M144.573 22L109.411 25.366V170.148L144.2 164.91V103.181L190.964 171.647L227.625 160.047L179.739 94.2021L228 32.098L190.592 23.4969L144.2 85.5986L144.573 22ZM64.8698 57.282C64.4728 57.3229 64.0892 57.4986 63.7911 57.7985L49.9907 71.5965C49.4104 72.1783 49.3012 73.0807 49.7289 73.7852L65.8862 100.396C63.0205 105.214 60.7237 110.408 59.0822 115.888L29.4199 122.058C28.5946 122.229 28 122.96 28 123.807V143.32C28 144.146 28.5646 144.861 29.3598 145.053L58.1499 152.09C59.6852 158.436 62.0643 164.452 65.2087 169.982L48.5444 195.394C48.0795 196.104 48.1766 197.04 48.7773 197.638L62.5729 211.436C63.1531 212.015 64.0589 212.128 64.7665 211.702L90.8801 195.843C96.0096 198.803 101.541 201.132 107.388 202.712L113.481 232.007C113.653 232.837 114.386 233.427 115.228 233.427H134.744C135.564 233.427 136.28 232.867 136.476 232.062L143.653 202.707C149.68 201.081 155.38 198.657 160.634 195.562L186.368 212.435C187.076 212.901 188.012 212.808 188.612 212.207L202.413 198.409C202.996 197.826 203.101 196.923 202.672 196.221L193.278 180.738L190.239 181.699C189.796 181.839 189.312 181.675 189.052 181.288C189.052 181.288 183.06 172.516 175.321 161.191C166.07 179.296 147.248 191.699 125.513 191.699C94.6334 191.699 69.5979 166.663 69.5979 135.781C69.5979 113.064 83.1479 93.5263 102.6 84.7743V70.3494C99.0596 71.5879 95.6371 73.081 92.3864 74.8517C92.384 74.8495 92.3816 74.8437 92.3725 74.8355L66.033 57.5599C65.6782 57.3278 65.2668 57.2412 64.8698 57.282Z" fill="#030303"/>
</svg>

<svg xmlns="http://www.w3.org/2000/svg" width="256" height="256" fill="none"><path fill="#F4F2ED" d="M196 0H60C26.863 0 0 26.863 0 60v136c0 33.137 26.863 60 60 60h136c33.137 0 60-26.863 60-60V60c0-33.137-26.863-60-60-60"/><path fill="#030303" d="m144.573 22-35.162 3.366v144.782l34.789-5.238v-61.729l46.764 68.466 36.661-11.6-47.886-65.845L228 32.098l-37.408-8.601L144.2 85.599zM64.87 57.282c-.397.04-.78.217-1.079.517l-13.8 13.798a1.785 1.785 0 0 0-.262 2.188l16.157 26.611a69 69 0 0 0-6.804 15.492l-29.662 6.17a1.786 1.786 0 0 0-1.42 1.749v19.513c0 .826.565 1.541 1.36 1.733l28.79 7.037c1.535 6.346 3.914 12.362 7.059 17.892l-16.665 25.412a1.784 1.784 0 0 0 .233 2.244l13.796 13.798c.58.579 1.486.692 2.193.266l26.114-15.859a69 69 0 0 0 16.508 6.869l6.093 29.295c.172.83.905 1.42 1.747 1.42h19.516c.82 0 1.536-.56 1.732-1.365l7.177-29.355a68.7 68.7 0 0 0 16.981-7.145l25.734 16.873a1.78 1.78 0 0 0 2.244-.228l13.801-13.798a1.78 1.78 0 0 0 .259-2.188l-9.394-15.483-3.039.961a1.05 1.05 0 0 1-1.187-.411s-5.992-8.772-13.731-20.097c-9.251 18.105-28.073 30.508-49.808 30.508-30.88 0-55.915-25.036-55.915-55.918 0-22.717 13.55-42.255 33.002-51.007V70.35c-3.54 1.239-6.963 2.732-10.214 4.503q-.001-.003-.013-.017L66.033 57.56a1.78 1.78 0 0 0-1.163-.278"/></svg>
